; generated by PrusaSlicer 2.9.4 on 2026-03-27 at 22:54:11 UTC


;
;
; 

; external perimeters extrusion width = 0.45mm
; perimeters extrusion width = 0.45mm
; infill extrusion width = 0.45mm
; solid infill extrusion width = 0.45mm
; top infill extrusion width = 0.40mm
; support material extrusion width = 0.35mm
; first layer extrusion width = 0.42mm

M73 P0 R186
M73 Q0 S187
M201 X1000 Y1000 Z200 E5000 ; sets maximum accelerations, mm/sec^2
M203 X200 Y200 Z12 E120 ; sets maximum feedrates, mm / sec
M204 S1250 T1250 ; sets acceleration (S) and retract acceleration (R), mm/sec^2
M205 X8.00 Y8.00 Z0.40 E4.50 ; sets the jerk limits, mm/sec
M205 S0 T0 ; sets the minimum extruding and travel feed rate, mm/sec

; printing object Time server case - Olimex Back.stl id:0 copy 0
; stop printing object Time server case - Olimex Back.stl id:0 copy 0

;TYPE:Custom
M862.3 P "MK3S" ; printer model check
M862.1 P0.4 ; nozzle diameter check
M115 U3.14.1 ; tell printer latest fw version
G90 ; use absolute coordinates
M83 ; extruder relative mode
M104 S250 ; set extruder temp
M140 S85 ; set bed temp
M190 S85 ; wait for bed temp
M109 S250 ; wait for extruder temp
G28 W ; home all without mesh bed level
G80 X70.4182 Y69.4182 W109.164 H71.1635 ; mesh bed levelling

G1 Z0.2 F720
G1 Y-3 F1000 ; go outside print area
G92 E0
G1 X60 E9 F1000 ; intro line
G1 X100 E12.5 F1000 ; intro line

G92 E0
M221 S95

; Don't change E values below. Excessive value can damage the printer.
M907 E430 ; set extruder motor current
G21 ; set units to millimeters
G90 ; use absolute coordinates
M83 ; use relative distances for extrusion

M900 K0.08 ; Filament gcode LA 1.5
M900 K45 ; Filament gcode LA 1.0




M107
;LAYER_CHANGE
;Z:0.2
;HEIGHT:0.2
G1 E-1 F2100
G1 Z.4 F720
G1 X71.526 Y70.698 F10800
G1 Z.2 F720
G1 E1 F2100
M204 S800
;TYPE:Skirt/Brim
;WIDTH:0.42
G1 F1200
G1 X72.088 Y70.198 E.02359
G1 X72.841 Y69.821 E.0264
G1 X74 Y69.607 E.03695
G1 X176.341 Y69.633 E3.20883
G1 X177.091 Y69.781 E.02397
G1 X177.855 Y70.172 E.02691
G1 X178.302 Y70.526 E.01788
G1 X178.802 Y71.088 E.02359
G1 X179.179 Y71.841 E.0264
G1 X179.393 Y73 E.03695
G1 X179.393 Y137 E2.00668
G1 X179.219 Y138.091 E.03464
G1 X178.828 Y138.855 E.02691
G1 X178.474 Y139.302 E.01788
G1 X177.912 Y139.802 E.02359
G1 X177.159 Y140.179 E.0264
G1 X176 Y140.393 E.03695
G1 X74 Y140.393 E3.19814
G1 X73.163 Y140.274 E.02651
G1 X72.312 Y139.941 E.02865
G1 X71.526 Y139.302 E.03176
G1 X71.172 Y138.855 E.01788
G1 X70.781 Y138.091 E.02691
G1 X70.607 Y137 E.03464
G1 X70.607 Y73 E2.00668
G1 X70.781 Y71.909 E.03464
M73 Q0 S186
G1 X71.172 Y71.145 E.02691
G1 X71.489 Y70.745 E.016
M204 S1000
;WIPE_START
G1 F8640
G1 X71.526 Y70.698 E-.01381
G1 X72.088 Y70.198 E-.17369
G1 X72.841 Y69.821 E-.19444
G1 X74 Y69.607 E-.27214
G1 X75.498 Y69.607 E-.34592
;WIPE_END
G1 Z.4 F720
; printing object Time server case - Olimex Back.stl id:0 copy 0
G1 X100.414 Y101.706 F10800
G1 Z.2 F720
G1 E1 F2100
M204 S800
;TYPE:Support material
G1 F1200
G1 X101.101 Y101.98 E.02319
G1 X101.713 Y102.395 E.02318
G1 X102.221 Y102.931 E.02315
G1 X102.602 Y103.565 E.02319
G1 X102.838 Y104.265 E.02316
G1 X102.918 Y105 E.02318
G1 X102.838 Y105.735 E.02318
G1 X102.602 Y106.435 E.02316
G1 X102.221 Y107.069 E.02319
G1 X101.713 Y107.605 E.02315
G1 X101.101 Y108.02 E.02318
G1 X100.414 Y108.294 E.02319
G1 X99.685 Y108.413 E.02316
G1 X98.947 Y108.373 E.02317
G1 X98.873 Y108.353 E.0024
G1 X98.873 Y101.647 E.21026
G1 X99.685 Y101.587 E.02553
G1 X100.359 Y101.697 E.02141
M204 S1000
G1 X102.375 Y106.484 F10800
M204 S800
G1 F1200
G1 X102.375 Y103.953 E.07936
G1 X101.956 Y103.149 E.02843
G1 X101.956 Y106.851 E.11607
G1 X101.537 Y107.297 E.01919
G1 X101.537 Y102.703 E.14404
G1 X101.118 Y102.402 E.01618
G1 X101.118 Y107.598 E.16292
G1 X100.699 Y107.815 E.01479
G1 X100.699 Y102.185 E.17652
G1 X100.28 Y102.028 E.01403
G1 X100.28 Y107.972 E.18637
G1 X99.861 Y108.04 E.01331
G1 X99.861 Y101.959 E.19067
G1 X99.442 Y101.94 E.01315
G1 X99.442 Y108.23 E.19722
M204 S1000
;WIPE_START
G1 F8640
G1 X99.442 Y103.899 E-1
;WIPE_END
G1 Z.4 F720
G1 X119.68 Y126.683 F10800
G1 Z.2 F720
G1 E1 F2100
M204 S800
;TYPE:Perimeter
;WIDTH:0.419999
G1 F1200
G1 X118.853 Y125.785 E.03828
G1 X118.149 Y124.708 E.04034
G1 X117.632 Y123.529 E.04036
G1 X117.328 Y122.328 E.03884
G1 X117.214 Y121.047 E.04032
G1 X117.316 Y119.722 E.04167
G1 X117.621 Y118.516 E.039
G1 X118.146 Y117.303 E.04144
G1 X118.733 Y116.398 E.03382
G1 X119.152 Y115.891 E.02062
G1 X119.696 Y115.299 E.02521
G1 X120.263 Y114.849 E.0227
G1 X120.702 Y114.507 E.01745
G1 X121.915 Y113.851 E.04324
G1 X123.088 Y113.449 E.03888
G1 X124.357 Y113.237 E.04034
G1 X125.643 Y113.237 E.04032
G1 X126.912 Y113.449 E.04034
G1 X128.129 Y113.866 E.04034
G1 X129.261 Y114.479 E.04036
G1 X130.276 Y115.269 E.04033
G1 X131.147 Y116.215 E.04032
G1 X131.825 Y117.253 E.03887
G1 X132.367 Y118.469 E.04174
G1 X132.684 Y119.718 E.0404
G1 X132.79 Y121 E.04033
G1 X132.684 Y122.282 E.04033
G1 X132.368 Y123.529 E.04033
G1 X131.851 Y124.708 E.04036
G1 X131.147 Y125.785 E.04034
G1 X130.276 Y126.731 E.04032
G1 X129.261 Y127.521 E.04033
G1 X128.129 Y128.134 E.04036
G1 X126.912 Y128.551 E.04034
G1 X125.643 Y128.763 E.04034
G1 X124.357 Y128.763 E.04032
M73 P0 R185
G1 X123.088 Y128.551 E.04034
G1 X121.871 Y128.134 E.04034
G1 X120.739 Y127.521 E.04036
G1 X119.724 Y126.731 E.04033
G1 X119.721 Y126.727 E.00016
M204 S1000
G1 X119.957 Y126.428 F10800
M204 S800
;TYPE:External perimeter
G1 F1200
G1 X119.151 Y125.552 E.03732
G1 X118.482 Y124.527 E.03838
G1 X117.99 Y123.406 E.03838
G1 X117.694 Y122.235 E.03787
G1 X117.59 Y121.016 E.03836
G1 X117.69 Y119.781 E.03885
G1 X117.986 Y118.609 E.0379
G1 X118.481 Y117.476 E.03877
G1 X119.049 Y116.604 E.03263
G1 X119.429 Y116.146 E.01866
G1 X119.971 Y115.557 E.0251
G1 X120.495 Y115.147 E.02086
G1 X120.934 Y114.805 E.01745
G1 X122.038 Y114.208 E.03935
G1 X123.181 Y113.815 E.0379
G1 X124.388 Y113.614 E.03837
G1 X125.612 Y113.614 E.03838
G1 X126.819 Y113.815 E.03837
G1 X127.977 Y114.213 E.03839
G1 X129.054 Y114.795 E.03838
G1 X130.02 Y115.547 E.03838
G1 X130.849 Y116.448 E.03839
G1 X131.51 Y117.459 E.03787
G1 X132.01 Y118.593 E.03886
G1 X132.31 Y119.78 E.03839
G1 X132.411 Y121 E.03838
G1 X132.31 Y122.22 E.03838
G1 X132.01 Y123.406 E.03836
G1 X131.518 Y124.527 E.03838
G1 X130.849 Y125.552 E.03838
G1 X130.02 Y126.453 E.03839
G1 X129.054 Y127.205 E.03838
G1 X127.977 Y127.787 E.03838
G1 X126.819 Y128.185 E.03839
G1 X125.612 Y128.386 E.03837
G1 X124.388 Y128.386 E.03838
G1 X123.181 Y128.185 E.03837
G1 X122.023 Y127.787 E.03839
G1 X120.946 Y127.205 E.03838
G1 X120.001 Y126.469 E.03756
M204 S1000
;WIPE_START
G1 F8640
G1 X119.957 Y126.428 E-.01389
G1 X119.151 Y125.552 E-.27486
G1 X118.482 Y124.527 E-.28263
G1 X117.99 Y123.406 E-.28267
G1 X117.835 Y122.793 E-.14595
;WIPE_END
G1 Z.4 F720
G1 X103.753 Y106.942 F10800
G1 Z.2 F720
G1 E1 F2100
M204 S800
;TYPE:Perimeter
G1 F1200
G1 X103.246 Y107.811 E.03155
G1 X102.686 Y108.413 E.02578
G1 X102.457 Y108.632 E.00993
G1 X101.716 Y109.126 E.02792
G1 X100.843 Y109.487 E.02962
G1 X99.851 Y109.67 E.03163
G1 X98.839 Y109.636 E.03175
G1 X97.858 Y109.386 E.03174
G1 X96.953 Y108.93 E.03177
G1 X96.168 Y108.291 E.03174
G1 X95.503 Y107.439 E.03389
G1 X95.07 Y106.519 E.03188
G1 X94.847 Y105.531 E.03176
G1 X94.842 Y104.518 E.03176
G1 X95.054 Y103.528 E.03174
G1 X95.44 Y102.666 E.02961
G1 X96.034 Y101.851 E.03162
G1 X96.792 Y101.179 E.03176
G1 X97.676 Y100.686 E.03174
G1 X98.646 Y100.395 E.03175
G1 X99.725 Y100.323 E.03391
G1 X100.729 Y100.481 E.03187
G1 X101.672 Y100.851 E.03176
G1 X102.513 Y101.415 E.03175
G1 X103.213 Y102.146 E.03173
G1 X103.74 Y103.011 E.03176
G1 X104.068 Y103.969 E.03175
G1 X104.183 Y105.025 E.03331
G1 X104.094 Y105.911 E.02792
G1 X103.79 Y106.878 E.03178
G1 X103.783 Y106.891 E.00046
M204 S1000
G1 X103.416 Y106.787 F10800
M204 S800
;TYPE:External perimeter
G1 F1200
G1 X102.922 Y107.616 E.03026
G1 X102.248 Y108.318 E.03051
G1 X101.506 Y108.812 E.02795
G1 X100.703 Y109.137 E.02716
G1 X99.787 Y109.298 E.02916
G1 X98.856 Y109.26 E.02922
G1 X97.956 Y109.022 E.02919
G1 X97.127 Y108.596 E.02922
G1 X96.41 Y108.002 E.02919
G1 X95.803 Y107.211 E.03126
G1 X95.413 Y106.363 E.02927
G1 X95.216 Y105.453 E.02919
G1 X95.219 Y104.521 E.02922
G1 X95.422 Y103.612 E.0292
G1 X95.782 Y102.824 E.02716
G1 X96.336 Y102.077 E.02916
G1 X97.038 Y101.465 E.0292
G1 X97.855 Y101.018 E.0292
G1 X98.75 Y100.758 E.02922
G1 X99.745 Y100.699 E.03125
G1 X100.665 Y100.853 E.02925
G1 X101.53 Y101.2 E.02922
G1 X102.299 Y101.725 E.02919
G1 X102.938 Y102.403 E.02921
G1 X103.415 Y103.203 E.0292
G1 X103.71 Y104.087 E.02922
G1 X103.808 Y104.987 E.02839
G1 X103.719 Y105.873 E.02792
G1 X103.441 Y106.733 E.02834
M204 S1000
;WIPE_START
G1 F8640
G1 X103.416 Y106.787 E-.01374
G1 X102.922 Y107.616 E-.22283
G1 X102.248 Y108.318 E-.22471
G1 X101.506 Y108.812 E-.20583
G1 X100.703 Y109.137 E-.20003
G1 X100.136 Y109.237 E-.13286
;WIPE_END
G1 Z.4 F720
G1 X141.543 Y112.462 F10800
G1 Z.2 F720
G1 E1 F2100
M204 S800
;TYPE:Perimeter
G1 F1200
G1 X141.458 Y112.385 E.0036
G1 X141.363 Y112.119 E.00886
G1 X141.363 Y97.929 E.44492
G1 X141.406 Y97.713 E.00691
G1 X141.576 Y97.487 E.00887
G1 X141.85 Y97.363 E.00943
G1 X159.073 Y97.363 E.54001
G1 X159.328 Y97.424 E.00822
G1 X159.527 Y97.591 E.00815
G1 X159.639 Y97.851 E.00888
G1 X159.639 Y112.071 E.44586
G1 X159.579 Y112.325 E.00818
G1 X159.397 Y112.535 E.00871
G1 X159.136 Y112.637 E.00879
G1 X141.928 Y112.637 E.53954
G1 X141.666 Y112.573 E.00846
G1 X141.588 Y112.502 E.00331
M204 S1000
G1 X141.827 Y112.215 F10800
M204 S800
;TYPE:External perimeter
G1 F1200
G1 X141.79 Y112.199 E.00126
G1 X141.74 Y112.071 E.00431
G1 X141.74 Y97.926 E.44351
G1 X141.754 Y97.857 E.00221
G1 X141.88 Y97.74 E.00539
G1 X159.073 Y97.74 E.53907
G1 X159.214 Y97.804 E.00486
G1 X159.262 Y97.929 E.0042
G1 X159.262 Y112.071 E.44341
G1 X159.192 Y112.217 E.00508
G1 X159.073 Y112.26 E.00397
G1 X141.928 Y112.26 E.53757
G1 X141.882 Y112.239 E.00159
M204 S1000
;WIPE_START
G1 F8640
G1 X141.827 Y112.215 E-.01386
G1 X141.79 Y112.199 E-.00931
G1 X141.74 Y112.071 E-.03173
G1 X141.74 Y107.978 E-.9451
;WIPE_END
G1 Z.4 F720
G1 X175.807 Y136.792 F10800
G1 Z.2 F720
G1 E1 F2100
M204 S800
;TYPE:Perimeter
G1 F1200
G1 X175.807 Y136.809 E.00053
G1 X74.193 Y136.809 E3.18603
G1 X74.193 Y73.193 E1.99463
G1 X175.809 Y73.193 E3.18609
G1 X175.807 Y136.732 E1.99222
M204 S1000
G1 X175.961 Y137.186 F10800
M204 S800
;TYPE:External perimeter
G1 F1200
G1 X74.033 Y137.186 E3.19588
G1 X73.861 Y137.08 E.00633
G1 X73.815 Y136.946 E.00444
G1 X73.815 Y73.125 E2.00106
G1 X73.861 Y72.921 E.00656
G1 X74.041 Y72.815 E.00655
G1 X175.882 Y72.815 E3.19315
G1 X176.08 Y72.861 E.00637
G1 X176.141 Y72.96 E.00365
G1 X176.186 Y73.119 E.00518
G1 X176.185 Y136.882 E1.99924
G1 X176.139 Y137.08 E.00637
G1 X176.013 Y137.158 E.00465
M204 S1000
;WIPE_START
G1 F8640
G1 X175.961 Y137.186 E-.01364
G1 X171.689 Y137.186 E-.98636
;WIPE_END
G1 Z.4 F720
G1 X174.894 Y73.343 F10800
G1 Z.2 F720
G1 E1 F2100
M204 S800
;TYPE:Solid infill
;WIDTH:0.421049
G1 F1200
G1 X175.488 Y73.938 E.02643
G1 X175.488 Y74.473 E.01682
G1 X174.529 Y73.513 E.04266
G1 X173.994 Y73.513 E.01682
G1 X175.488 Y75.008 E.06645
G1 X175.488 Y75.542 E.01679
G1 X173.459 Y73.513 E.09022
G1 X172.924 Y73.513 E.01682
G1 X175.488 Y76.077 E.11401
G1 X175.488 Y76.612 E.01682
G1 X172.39 Y73.513 E.13778
G1 X171.855 Y73.513 E.01682
G1 X175.488 Y77.147 E.16156
G1 X175.488 Y77.681 E.01679
G1 X171.32 Y73.513 E.18533
G1 X170.785 Y73.513 E.01682
G1 X175.488 Y78.216 E.20912
G1 X175.488 Y78.751 E.01682
G1 X170.25 Y73.513 E.23291
G1 X169.716 Y73.513 E.01679
G1 X175.488 Y79.286 E.25667
G1 X175.488 Y79.82 E.01679
G1 X169.181 Y73.513 E.28044
G1 X168.646 Y73.513 E.01682
G1 X175.488 Y80.355 E.30423
G1 X175.488 Y80.89 E.01682
M73 Q0 S185
G1 X168.111 Y73.513 E.32802
G1 X167.577 Y73.513 E.01679
G1 X175.488 Y81.425 E.35179
G1 X175.488 Y81.959 E.01679
G1 X167.042 Y73.513 E.37555
G1 X166.507 Y73.513 E.01682
G1 X175.488 Y82.494 E.39934
G1 X175.488 Y83.029 E.01682
G1 X165.972 Y73.513 E.42313
G1 X165.438 Y73.513 E.01679
G1 X175.488 Y83.564 E.4469
G1 X175.488 Y84.098 E.01679
G1 X164.903 Y73.513 E.47066
G1 X164.368 Y73.513 E.01682
G1 X175.488 Y84.633 E.49445
G1 X175.488 Y85.168 E.01682
G1 X163.833 Y73.513 E.51824
G1 X163.299 Y73.513 E.01679
G1 X175.488 Y85.703 E.54201
G1 X175.488 Y86.237 E.01679
G1 X162.764 Y73.513 E.56577
G1 X162.229 Y73.513 E.01682
M73 P0 R184
G1 X175.488 Y86.772 E.58956
G1 X175.488 Y87.307 E.01682
G1 X161.694 Y73.513 E.61335
G1 X161.16 Y73.513 E.01679
G1 X175.488 Y87.841 E.6371
G1 X175.488 Y88.376 E.01682
G1 X160.625 Y73.513 E.66088
G1 X160.09 Y73.513 E.01682
G1 X175.488 Y88.911 E.68467
G1 X175.488 Y89.446 E.01682
G1 X159.555 Y73.513 E.70846
G1 X159.021 Y73.513 E.01679
G1 X175.488 Y89.98 E.73221
G1 X175.488 Y90.515 E.01682
G1 X158.486 Y73.513 E.756
G1 X157.951 Y73.513 E.01682
G1 X175.488 Y91.05 E.77978
G1 X175.488 Y91.585 E.01682
G1 X157.416 Y73.513 E.80357
G1 X156.882 Y73.513 E.01679
G1 X175.488 Y92.119 E.82732
G1 X175.488 Y92.654 E.01682
G1 X156.347 Y73.513 E.85111
G1 X155.812 Y73.513 E.01682
G1 X175.488 Y93.189 E.87489
G1 X175.488 Y93.724 E.01682
G1 X155.277 Y73.513 E.89868
G1 X154.743 Y73.513 E.01679
G1 X175.488 Y94.258 E.92243
G1 X175.488 Y94.793 E.01682
G1 X154.208 Y73.513 E.94622
G1 X153.673 Y73.513 E.01682
M73 Q1 S185
G1 X175.488 Y95.328 E.97001
G1 X175.488 Y95.863 E.01682
M73 P1 R184
G1 X153.138 Y73.513 E.99379
G1 X152.604 Y73.513 E.01679
G1 X175.488 Y96.397 E1.01754
G1 X175.488 Y96.932 E.01682
G1 X152.069 Y73.513 E1.04133
G1 X151.534 Y73.513 E.01682
G1 X175.488 Y97.467 E1.06512
G1 X175.488 Y98.002 E.01682
G1 X150.999 Y73.513 E1.08891
G1 X150.465 Y73.513 E.01679
G1 X175.488 Y98.536 E1.11265
G1 X175.488 Y99.071 E.01682
G1 X149.93 Y73.513 E1.13644
G1 X149.395 Y73.513 E.01682
G1 X175.488 Y99.606 E1.16023
G1 X175.488 Y100.141 E.01682
G1 X148.86 Y73.513 E1.18402
G1 X148.326 Y73.513 E.01679
G1 X175.488 Y100.675 E1.20776
G1 X175.488 Y101.21 E.01682
G1 X147.791 Y73.513 E1.23155
G1 X147.256 Y73.513 E.01682
G1 X175.488 Y101.745 E1.25534
G1 X175.488 Y102.28 E.01682
G1 X146.721 Y73.513 E1.27913
G1 X146.187 Y73.513 E.01679
G1 X175.488 Y102.814 E1.30287
G1 X175.488 Y103.349 E.01682
G1 X145.652 Y73.513 E1.32666
G1 X145.117 Y73.513 E.01682
G1 X175.488 Y103.884 E1.35045
G1 X175.488 Y104.419 E.01682
M73 Q1 S184
G1 X144.582 Y73.513 E1.37424
G1 X144.047 Y73.513 E.01682
G1 X175.488 Y104.953 E1.398
G1 X175.488 Y105.488 E.01682
G1 X143.513 Y73.513 E1.42177
G1 X142.978 Y73.513 E.01682
G1 X175.488 Y106.023 E1.44556
G1 X175.488 Y106.557 E.01679
M73 P1 R183
G1 X142.443 Y73.513 E1.46933
G1 X141.908 Y73.513 E.01682
G1 X175.488 Y107.092 E1.49312
G1 X175.488 Y107.627 E.01682
G1 X141.374 Y73.513 E1.51688
G1 X140.839 Y73.513 E.01682
G1 X175.488 Y108.162 E1.54067
G1 X175.488 Y108.696 E.01679
G1 X140.304 Y73.513 E1.56444
G1 X139.769 Y73.513 E.01682
G1 X175.488 Y109.231 E1.58823
G1 X175.488 Y109.766 E.01682
G1 X139.235 Y73.513 E1.61199
G1 X138.7 Y73.513 E.01682
G1 X175.488 Y110.301 E1.63578
G1 X175.488 Y110.835 E.01679
G1 X138.165 Y73.513 E1.65955
G1 X137.63 Y73.513 E.01682
G1 X175.488 Y111.37 E1.68334
G1 X175.488 Y111.905 E.01682
G1 X137.096 Y73.513 E1.7071
G1 X136.561 Y73.513 E.01682
G1 X175.488 Y112.44 E1.73089
G1 X175.488 Y112.974 E.01679
G1 X136.026 Y73.513 E1.75466
G1 X135.491 Y73.513 E.01682
G1 X159.021 Y97.042 E1.04624
G1 X159.366 Y97.09 E.01095
G1 X159.633 Y97.24 E.00963
G1 X159.783 Y97.397 E.00683
G1 X159.867 Y97.534 E.00505
G1 X159.944 Y97.759 E.00748
G1 X159.959 Y97.981 E.007
G1 X175.487 Y113.509 E.69045
G1 X175.487 Y114.044 E.01682
G1 X159.959 Y98.516 E.69045
G1 X159.959 Y99.05 E.01679
G1 X175.487 Y114.579 E.69048
G1 X175.487 Y115.113 E.01679
G1 X159.959 Y99.585 E.69045
G1 X159.959 Y100.12 E.01682
G1 X175.487 Y115.648 E.69045
G1 X175.487 Y116.183 E.01682
G1 X159.959 Y100.655 E.69045
G1 X159.959 Y101.189 E.01679
G1 X175.487 Y116.718 E.69048
G1 X175.487 Y117.252 E.01679
G1 X159.959 Y101.724 E.69045
G1 X159.959 Y102.259 E.01682
G1 X175.487 Y117.787 E.69045
G1 X175.487 Y118.322 E.01682
G1 X159.959 Y102.794 E.69045
G1 X159.959 Y103.328 E.01679
G1 X175.487 Y118.857 E.69048
