; generated by PrusaSlicer 2.9.4 on 2026-04-03 at 16:09:47 UTC


;
;
; 

; external perimeters extrusion width = 0.45mm
; perimeters extrusion width = 0.45mm
; infill extrusion width = 0.45mm
; solid infill extrusion width = 0.45mm
; top infill extrusion width = 0.40mm
; first layer extrusion width = 0.42mm

M73 P0 R130
M73 Q0 S130
M201 X1000 Y1000 Z200 E5000 ; sets maximum accelerations, mm/sec^2
M203 X200 Y200 Z12 E120 ; sets maximum feedrates, mm / sec
M204 S1250 T1250 ; sets acceleration (S) and retract acceleration (R), mm/sec^2
M205 X8.00 Y8.00 Z0.40 E4.50 ; sets the jerk limits, mm/sec
M205 S0 T0 ; sets the minimum extruding and travel feed rate, mm/sec

; printing object Time server case - ESP32-P4-ETH-PCB-NoUSB.stl id:0 copy 0
; stop printing object Time server case - ESP32-P4-ETH-PCB-NoUSB.stl id:0 copy 0

;TYPE:Custom
M862.3 P "MK3S" ; printer model check
M862.1 P0.4 ; nozzle diameter check
M115 U3.14.1 ; tell printer latest fw version
G90 ; use absolute coordinates
M83 ; extruder relative mode
M104 S250 ; set extruder temp
M140 S80 ; set bed temp
M190 S80 ; wait for bed temp
M109 S250 ; wait for extruder temp
G28 W ; home all without mesh bed level
G80 X70.4182 Y69.4182 W109.164 H71.1635 ; mesh bed levelling

G1 Z0.2 F720
G1 Y-3 F1000 ; go outside print area
G92 E0
G1 X60 E9 F1000 ; intro line
G1 X100 E12.5 F1000 ; intro line
M73 P0 R129

G92 E0
M221 S95

; Don't change E values below. Excessive value can damage the printer.
M907 E430 ; set extruder motor current
G21 ; set units to millimeters
G90 ; use absolute coordinates
M83 ; use relative distances for extrusion

M900 K0.08 ; Filament gcode LA 1.5
M900 K45 ; Filament gcode LA 1.0




M107
;LAYER_CHANGE
;Z:0.2
;HEIGHT:0.2
G1 E-1 F2100
G1 Z.4 F720
G1 X71.526 Y70.698 F10800
G1 Z.2 F720
G1 E1 F2100
M204 S800
;TYPE:Skirt/Brim
;WIDTH:0.42
G1 F1200
G1 X72.088 Y70.198 E.02359
G1 X72.841 Y69.821 E.0264
G1 X74 Y69.607 E.03695
G1 X176.287 Y69.626 E3.20714
G1 X177.159 Y69.821 E.02802
G1 X177.688 Y70.059 E.01819
G1 X178.474 Y70.698 E.03176
G1 X178.828 Y71.145 E.01788
G1 X179.219 Y71.909 E.02691
G1 X179.393 Y73 E.03464
G1 X179.393 Y137 E2.00668
G1 X179.219 Y138.091 E.03464
G1 X178.828 Y138.855 E.02691
G1 X178.474 Y139.302 E.01788
G1 X177.912 Y139.802 E.02359
G1 X177.159 Y140.179 E.0264
G1 X176 Y140.393 E.03695
G1 X74 Y140.393 E3.19814
G1 X73.163 Y140.274 E.02651
G1 X72.312 Y139.941 E.02865
G1 X71.526 Y139.302 E.03176
G1 X71.172 Y138.855 E.01788
G1 X70.781 Y138.091 E.02691
G1 X70.607 Y137 E.03464
G1 X70.607 Y73 E2.00668
G1 X70.781 Y71.909 E.03464
G1 X71.172 Y71.145 E.02691
G1 X71.489 Y70.745 E.016
M204 S1000
;WIPE_START
G1 F8640
G1 X71.526 Y70.698 E-.01381
G1 X72.088 Y70.198 E-.17369
G1 X72.841 Y69.821 E-.19444
G1 X74 Y69.607 E-.27214
G1 X75.498 Y69.607 E-.34592
;WIPE_END
G1 Z.4 F720
; printing object Time server case - ESP32-P4-ETH-PCB-NoUSB.stl id:0 copy 0
G1 X129.373 Y85.44 F10800
G1 Z.2 F720
G1 E1 F2100
M204 S800
;TYPE:Perimeter
;WIDTH:0.419999
G1 F1200
G1 X130.344 Y86.195 E.03857
G1 X131.226 Y87.154 E.04085
G1 X131.939 Y88.245 E.04086
G1 X132.463 Y89.438 E.04085
G1 X132.754 Y90.589 E.03722
G1 X132.89 Y91.997 E.04435
G1 X132.783 Y93.299 E.04096
G1 X132.463 Y94.562 E.04085
G1 X131.968 Y95.689 E.03859
G1 X131.228 Y96.844 E.04301
G1 X130.376 Y97.77 E.03945
G1 X129.352 Y98.577 E.04088
G1 X128.742 Y98.915 E.02187
G1 X128.211 Y99.203 E.01894
G1 X126.937 Y99.649 E.04232
G1 X125.652 Y99.863 E.04085
G1 X124.348 Y99.863 E.04089
G1 X123.063 Y99.649 E.04085
G1 X121.875 Y99.241 E.03938
G1 X120.726 Y98.628 E.04083
G1 X119.656 Y97.805 E.04233
G1 X118.805 Y96.881 E.03939
G1 X118.086 Y95.795 E.04084
G1 X117.666 Y94.856 E.03225
G1 X117.555 Y94.585 E.00918
G1 X117.23 Y93.349 E.04007
G1 X117.112 Y92.009 E.04218
G1 X117.218 Y90.701 E.04115
G1 X117.537 Y89.438 E.04084
G1 X118.061 Y88.245 E.04085
G1 X118.774 Y87.154 E.04086
G1 X119.656 Y86.195 E.04085
G1 X120.685 Y85.395 E.04087
G1 X121.831 Y84.774 E.04087
G1 X123.063 Y84.351 E.04084
G1 X124.348 Y84.137 E.04085
G1 X125.652 Y84.137 E.04089
G1 X126.937 Y84.351 E.04085
G1 X128.101 Y84.751 E.03859
G1 X129.313 Y85.393 E.043
G1 X129.326 Y85.403 E.00051
M204 S1000
G1 X129.142 Y85.737 F10800
M204 S800
;TYPE:External perimeter
G1 F1200
G1 X130.088 Y86.473 E.03758
G1 X130.928 Y87.386 E.0389
G1 X131.606 Y88.425 E.0389
G1 X132.105 Y89.561 E.0389
G1 X132.388 Y90.681 E.03622
G1 X132.512 Y91.999 E.04151
G1 X132.409 Y93.236 E.03892
G1 X132.105 Y94.439 E.0389
G1 X131.635 Y95.511 E.0367
G1 X130.928 Y96.613 E.04105
G1 X130.098 Y97.515 E.03843
G1 X129.121 Y98.279 E.03889
G1 X128.031 Y98.872 E.03891
G1 X127.431 Y99.08 E.01991
G1 X126.844 Y99.282 E.01946
G1 X125.62 Y99.486 E.03891
G1 X124.38 Y99.486 E.03888
G1 X123.156 Y99.282 E.03891
G1 X121.997 Y98.884 E.03842
G1 X121.437 Y98.584 E.01992
G1 X120.905 Y98.296 E.01897
G1 X119.912 Y97.527 E.03938
G1 X119.083 Y96.625 E.03841
G1 X118.402 Y95.588 E.0389
G1 X118.012 Y94.705 E.03027
G1 X117.782 Y93.965 E.0243
G1 X117.594 Y93.251 E.02315
G1 X117.489 Y91.997 E.03946
G1 X117.591 Y90.764 E.03879
G1 X117.895 Y89.561 E.0389
G1 X118.394 Y88.425 E.0389
G1 X119.072 Y87.386 E.0389
G1 X119.912 Y86.473 E.0389
G1 X120.891 Y85.711 E.0389
G1 X121.983 Y85.121 E.03892
G1 X123.156 Y84.718 E.03889
G1 X124.38 Y84.514 E.03891
G1 X125.62 Y84.514 E.03888
G1 X126.844 Y84.718 E.03891
G1 X127.951 Y85.098 E.0367
G1 X129.093 Y85.703 E.04052
M204 S1000
;WIPE_START
G1 F8640
G1 X129.142 Y85.737 E-.01377
G1 X130.088 Y86.473 E-.27676
G1 X130.928 Y87.386 E-.28647
G1 X131.606 Y88.425 E-.28647
G1 X131.844 Y88.966 E-.13653
;WIPE_END
G1 Z.4 F720
G1 X148.543 Y107.7 F10800
G1 Z.2 F720
G1 E1 F2100
M204 S800
;TYPE:Perimeter
G1 F1200
G1 X148.446 Y107.606 E.00424
G1 X148.364 Y107.337 E.00882
G1 X148.363 Y92.829 E.45489
G1 X148.432 Y92.558 E.00877
G1 X148.605 Y92.365 E.00813
G1 X148.882 Y92.263 E.00926
G1 X166.222 Y92.263 E.54368
G1 X166.472 Y92.299 E.00792
G1 X166.693 Y92.45 E.00839
G1 X166.812 Y92.659 E.00754
G1 X166.839 Y92.829 E.0054
G1 X166.839 Y107.311 E.45407
G1 X166.772 Y107.578 E.00863
G1 X166.612 Y107.764 E.00769
G1 X166.354 Y107.877 E.00883
G1 X148.929 Y107.877 E.54635
G1 X148.651 Y107.805 E.009
G1 X148.586 Y107.742 E.00284
M204 S1000
G1 X148.839 Y107.458 F10800
M204 S800
;TYPE:External perimeter
G1 F1200
G1 X148.783 Y107.432 E.00194
G1 X148.74 Y107.312 E.004
G1 X148.74 Y92.825 E.45423
G1 X148.81 Y92.682 E.00499
G1 X148.913 Y92.64 E.00349
G1 X166.222 Y92.64 E.54271
G1 X166.395 Y92.685 E.0056
G1 X166.462 Y92.829 E.00498
G1 X166.462 Y107.311 E.45407
G1 X166.406 Y107.445 E.00455
G1 X166.273 Y107.5 E.00451
G1 X148.929 Y107.5 E.54381
G1 X148.893 Y107.483 E.00125
M204 S1000
;WIPE_START
G1 F8640
G1 X148.839 Y107.458 E-.01374
G1 X148.783 Y107.432 E-.01426
G1 X148.74 Y107.312 E-.02943
G1 X148.74 Y103.23 E-.94257
;WIPE_END
G1 Z.4 F720
G1 X87.94 Y101.992 F10800
G1 Z.2 F720
M73 Q0 S129
G1 E1 F2100
M204 S800
;TYPE:Perimeter
G1 F1200
G1 X88.673 Y101.352 E.03051
G1 X89.582 Y100.856 E.03247
G1 X90.575 Y100.566 E.03244
G1 X91.547 Y100.5 E.03055
G1 X92.623 Y100.65 E.03406
G1 X93.597 Y101.022 E.03269
G1 X94.461 Y101.592 E.03245
G1 X94.863 Y101.997 E.01789
G1 X95.218 Y102.375 E.01626
G1 X95.727 Y103.214 E.03077
G1 X96.07 Y104.19 E.03244
G1 X96.159 Y104.887 E.02203
G1 X96.195 Y105.34 E.01425
G1 X96.097 Y106.248 E.02863
G1 X95.779 Y107.233 E.03245
G1 X95.257 Y108.126 E.03243
G1 X94.554 Y108.887 E.03248
G1 X93.705 Y109.478 E.03243
G1 X92.749 Y109.874 E.03244
G1 X91.73 Y110.054 E.03244
G1 X90.696 Y110.011 E.03245
G1 X89.695 Y109.747 E.03246
G1 X88.775 Y109.274 E.03244
G1 X87.977 Y108.614 E.03247
G1 X87.341 Y107.799 E.03241
G1 X86.894 Y106.865 E.03247
G1 X86.659 Y105.857 E.03245
G1 X86.645 Y104.822 E.03245
G1 X86.855 Y103.809 E.03244
G1 X87.278 Y102.864 E.03246
G1 X87.893 Y102.032 E.03244
M204 S1000
G1 X88.209 Y102.247 F10800
M204 S800
;TYPE:External perimeter
G1 F1200
G1 X88.918 Y101.64 E.02926
G1 X89.758 Y101.189 E.02989
G1 X90.676 Y100.929 E.02992
G1 X91.567 Y100.877 E.02798
G1 X92.567 Y101.023 E.03169
G1 X93.458 Y101.372 E.03
G1 X94.25 Y101.904 E.02991
G1 X94.909 Y102.593 E.02989
G1 X95.404 Y103.408 E.0299
G1 X95.713 Y104.311 E.02992
G1 X95.785 Y104.928 E.01948
G1 X95.805 Y105.444 E.01619
G1 X95.722 Y106.207 E.02406
G1 X95.421 Y107.112 E.0299
G1 X94.933 Y107.932 E.02992
G1 X94.281 Y108.627 E.02988
G1 X93.494 Y109.166 E.02991
G1 X92.609 Y109.523 E.02992
G1 X91.669 Y109.682 E.02989
G1 X90.716 Y109.635 E.02992
G1 X89.796 Y109.384 E.0299
G1 X88.951 Y108.941 E.02991
G1 X88.221 Y108.327 E.02991
G1 X87.641 Y107.57 E.0299
G1 X87.236 Y106.707 E.02989
G1 X87.027 Y105.776 E.02992
G1 X87.023 Y104.822 E.02991
G1 X87.223 Y103.89 E.02989
G1 X87.62 Y103.022 E.02993
G1 X88.17 Y102.292 E.02866
M204 S1000
;WIPE_START
G1 F8640
G1 X88.209 Y102.247 E-.01375
G1 X88.918 Y101.64 E-.21551
G1 X89.758 Y101.189 E-.22015
G1 X90.676 Y100.929 E-.22031
G1 X91.567 Y100.877 E-.20608
G1 X92.099 Y100.955 E-.1242
;WIPE_END
G1 Z.4 F720
G1 X175.707 Y73.34 F10800
G1 Z.2 F720
G1 E1 F2100
M204 S800
;TYPE:Perimeter
G1 F1200
G1 X175.707 Y136.707 E1.98682
G1 X74.293 Y136.707 E3.17976
G1 X74.293 Y73.293 E1.9883
G1 X175.695 Y73.293 E3.17938
M204 S1000
G1 X176.012 Y72.964 F10800
M204 S800
;TYPE:External perimeter
G1 F1200
G1 X176.056 Y72.982 E.00149
G1 X176.085 Y73.092 E.00357
G1 X176.085 Y136.894 E2.00046
G1 X176.056 Y137.018 E.00399
G1 X175.947 Y137.085 E.00401
G1 X74.106 Y137.085 E3.19315
G1 X73.995 Y137.049 E.00366
M73 P0 R128
G1 X73.915 Y136.936 E.00434
G1 X73.915 Y73.106 E2.00134
G1 X73.944 Y72.982 E.00399
G1 X74.053 Y72.915 E.00401
G1 X175.894 Y72.915 E3.19315
G1 X175.957 Y72.941 E.00214
M204 S1000
;WIPE_START
G1 F8640
G1 X176.012 Y72.964 E-.01377
G1 X176.056 Y72.982 E-.01098
G1 X176.085 Y73.092 E-.02627
G1 X176.085 Y77.202 E-.94898
;WIPE_END
G1 Z.4 F720
G1 X174.794 Y73.443 F10800
G1 Z.2 F720
G1 E1 F2100
M204 S800
;TYPE:Solid infill
;WIDTH:0.420124
G1 F1200
G1 X175.387 Y74.036 E.0263
G1 X175.387 Y74.57 E.01675
G1 X174.43 Y73.613 E.04245
G1 X173.897 Y73.613 E.01672
G1 X175.387 Y75.103 E.06609
G1 X175.387 Y75.637 E.01675
G1 X173.363 Y73.613 E.08978
G1 X172.83 Y73.613 E.01672
G1 X175.387 Y76.17 E.11342
G1 X175.387 Y76.703 E.01672
G1 X172.297 Y73.613 E.13706
G1 X171.763 Y73.613 E.01675
G1 X175.387 Y77.237 E.16075
G1 X175.387 Y77.77 E.01672
G1 X171.23 Y73.613 E.18439
G1 X170.696 Y73.613 E.01675
G1 X175.387 Y78.304 E.20808
G1 X175.387 Y78.837 E.01672
M73 Q1 S129
G1 X170.163 Y73.613 E.23172
G1 X169.629 Y73.613 E.01675
M73 P1 R128
G1 X175.387 Y79.371 E.2554
G1 X175.387 Y79.904 E.01672
G1 X169.096 Y73.613 E.27905
G1 X168.562 Y73.613 E.01675
G1 X175.387 Y80.438 E.30273
G1 X175.387 Y80.971 E.01672
G1 X168.029 Y73.613 E.32637
G1 X167.496 Y73.613 E.01672
G1 X175.387 Y81.504 E.35002
G1 X175.387 Y82.038 E.01675
G1 X166.962 Y73.613 E.3737
G1 X166.429 Y73.613 E.01672
G1 X175.387 Y82.571 E.39734
G1 X175.387 Y83.105 E.01675
G1 X165.895 Y73.613 E.42103
G1 X165.362 Y73.613 E.01672
G1 X175.387 Y83.638 E.44467
G1 X175.387 Y84.172 E.01675
G1 X164.828 Y73.613 E.46836
G1 X164.295 Y73.613 E.01672
G1 X175.387 Y84.705 E.492
G1 X175.387 Y85.239 E.01675
G1 X163.761 Y73.613 E.51569
G1 X163.228 Y73.613 E.01672
G1 X175.387 Y85.772 E.53933
G1 X175.387 Y86.305 E.01672
G1 X162.695 Y73.613 E.56297
G1 X162.161 Y73.613 E.01675
G1 X175.387 Y86.839 E.58666
G1 X175.387 Y87.372 E.01672
G1 X161.628 Y73.613 E.6103
G1 X161.094 Y73.613 E.01675
G1 X175.387 Y87.906 E.63398
G1 X175.387 Y88.439 E.01672
G1 X160.561 Y73.613 E.65763
G1 X160.027 Y73.613 E.01675
G1 X175.387 Y88.973 E.68131
G1 X175.387 Y89.506 E.01672
G1 X159.494 Y73.613 E.70495
G1 X158.96 Y73.613 E.01675
G1 X175.387 Y90.04 E.72864
G1 X175.387 Y90.573 E.01672
G1 X158.427 Y73.613 E.75228
G1 X157.893 Y73.613 E.01675
G1 X175.387 Y91.107 E.77597
G1 X175.387 Y91.64 E.01672
M73 Q1 S128
G1 X157.36 Y73.613 E.79961
G1 X156.827 Y73.613 E.01672
G1 X175.387 Y92.173 E.82325
G1 X175.387 Y92.707 E.01675
G1 X156.293 Y73.613 E.84694
G1 X155.76 Y73.613 E.01672
G1 X175.387 Y93.24 E.87058
G1 X175.387 Y93.774 E.01675
G1 X155.226 Y73.613 E.89427
G1 X154.693 Y73.613 E.01672
G1 X175.387 Y94.307 E.91791
G1 X175.387 Y94.841 E.01675
G1 X154.159 Y73.613 E.9416
G1 X153.626 Y73.613 E.01672
G1 X175.387 Y95.374 E.96524
G1 X175.387 Y95.908 E.01675
G1 X153.092 Y73.613 E.98892
G1 X152.559 Y73.613 E.01672
G1 X175.387 Y96.441 E1.01257
G1 X175.387 Y96.974 E.01672
G1 X152.026 Y73.613 E1.03621
G1 X151.492 Y73.613 E.01675
G1 X175.387 Y97.508 E1.05989
G1 X175.387 Y98.041 E.01672
G1 X150.959 Y73.613 E1.08354
G1 X150.425 Y73.613 E.01675
G1 X175.387 Y98.575 E1.10722
G1 X175.387 Y99.108 E.01672
G1 X149.892 Y73.613 E1.13086
G1 X149.358 Y73.613 E.01675
G1 X175.387 Y99.642 E1.15455
G1 X175.387 Y100.175 E.01672
M73 P1 R127
G1 X148.825 Y73.613 E1.17819
G1 X148.291 Y73.613 E.01675
G1 X175.387 Y100.709 E1.20188
G1 X175.387 Y101.242 E.01672
G1 X167.159 Y93.014 E.36496
G1 X167.159 Y93.548 E.01675
G1 X175.387 Y101.775 E.36494
G1 X175.387 Y102.309 E.01675
G1 X167.159 Y94.081 E.36496
G1 X167.159 Y94.615 E.01675
G1 X175.387 Y102.842 E.36494
G1 X175.387 Y103.376 E.01675
G1 X167.159 Y95.148 E.36496
G1 X167.159 Y95.681 E.01672
G1 X175.387 Y103.909 E.36496
G1 X175.387 Y104.443 E.01675
G1 X167.159 Y96.215 E.36496
G1 X167.159 Y96.748 E.01672
G1 X175.387 Y104.976 E.36496
G1 X175.387 Y105.51 E.01675
G1 X167.159 Y97.282 E.36496
G1 X167.159 Y97.815 E.01672
G1 X175.387 Y106.043 E.36496
G1 X175.387 Y106.576 E.01672
G1 X167.159 Y98.349 E.36494
G1 X167.159 Y98.882 E.01672
G1 X175.387 Y107.11 E.36496
G1 X175.387 Y107.643 E.01672
G1 X167.159 Y99.416 E.36494
G1 X167.159 Y99.949 E.01672
G1 X175.387 Y108.177 E.36496
G1 X175.387 Y108.71 E.01672
G1 X167.159 Y100.482 E.36496
G1 X167.159 Y101.016 E.01675
G1 X175.387 Y109.244 E.36496
G1 X175.387 Y109.777 E.01672
G1 X167.159 Y101.549 E.36496
G1 X167.159 Y102.083 E.01675
G1 X175.387 Y110.311 E.36496
G1 X175.387 Y110.844 E.01672
G1 X167.159 Y102.616 E.36496
G1 X167.159 Y103.15 E.01675
G1 X175.387 Y111.378 E.36496
G1 X175.387 Y111.911 E.01672
G1 X167.159 Y103.683 E.36496
G1 X167.159 Y104.217 E.01675
G1 X175.387 Y112.444 E.36494
G1 X175.387 Y112.978 E.01675
G1 X167.159 Y104.75 E.36496
G1 X167.159 Y105.283 E.01672
G1 X175.387 Y113.511 E.36496
G1 X175.387 Y114.045 E.01675
G1 X167.159 Y105.817 E.36496
G1 X167.159 Y106.35 E.01672
G1 X175.387 Y114.578 E.36496
G1 X175.387 Y115.112 E.01675
G1 X167.159 Y106.884 E.36496
G1 X167.146 Y107.404 E.01631
G1 X175.387 Y115.645 E.36554
G1 X175.387 Y116.179 E.01675
G1 X167.006 Y107.797 E.37177
G1 X166.901 Y107.937 E.00549
G1 X166.736 Y108.061 E.00647
G1 X175.387 Y116.712 E.38373
G1 X175.387 Y117.245 E.01672
G1 X166.334 Y108.193 E.40154
G1 X165.806 Y108.198 E.01656
G1 X175.387 Y117.779 E.42498
G1 X175.387 Y118.312 E.01672
G1 X165.272 Y108.198 E.44864
G1 X164.739 Y108.198 E.01672
G1 X175.387 Y118.846 E.47231
G1 X175.387 Y119.379 E.01672
G1 X164.205 Y108.198 E.49597
G1 X163.672 Y108.198 E.01672
G1 X175.387 Y119.913 E.51963
G1 X175.387 Y120.446 E.01672
G1 X163.138 Y108.198 E.5433
G1 X162.605 Y108.198 E.01672
G1 X175.387 Y120.98 E.56696
G1 X175.387 Y121.513 E.01672
G1 X162.072 Y108.198 E.5906
G1 X161.538 Y108.198 E.01675
G1 X175.387 Y122.046 E.61427
G1 X175.387 Y122.58 E.01675
G1 X161.005 Y108.198 E.63793
G1 X160.471 Y108.198 E.01675
G1 X175.387 Y123.113 E.6616
G1 X175.387 Y123.647 E.01675
M73 P2 R127
M73 Q2 S128
G1 X159.938 Y108.198 E.68526
G1 X159.404 Y108.198 E.01675
M73 Q2 S127
G1 X175.387 Y124.18 E.70892
G1 X175.387 Y124.714 E.01675
G1 X158.871 Y108.198 E.73259
G1 X158.337 Y108.198 E.01675
G1 X175.387 Y125.247 E.75625
G1 X175.387 Y125.781 E.01675
G1 X157.804 Y108.198 E.77992
G1 X157.271 Y108.198 E.01672
G1 X175.387 Y126.314 E.80356
G1 X175.387 Y126.847 E.01672
G1 X156.737 Y108.198 E.82722
G1 X156.204 Y108.198 E.01672
G1 X175.387 Y127.381 E.85089
G1 X175.387 Y127.914 E.01672
G1 X155.67 Y108.198 E.87455
G1 X155.137 Y108.198 E.01672
G1 X175.387 Y128.448 E.89822
G1 X175.387 Y128.981 E.01672
G1 X154.603 Y108.198 E.92188
G1 X154.07 Y108.198 E.01672
G1 X175.387 Y129.515 E.94554
G1 X175.387 Y130.048 E.01672
G1 X153.536 Y108.198 E.96921
G1 X153.003 Y108.198 E.01672
G1 X175.387 Y130.582 E.99287
G1 X175.387 Y131.115 E.01672
G1 X152.47 Y108.198 E1.01651
G1 X151.936 Y108.198 E.01675
