; generated by PrusaSlicer 2.9.4 on 2026-03-27 at 22:37:12 UTC


;
;
; 

; external perimeters extrusion width = 0.45mm
; perimeters extrusion width = 0.45mm
; infill extrusion width = 0.45mm
; solid infill extrusion width = 0.45mm
; top infill extrusion width = 0.40mm
; first layer extrusion width = 0.42mm

M73 P0 R83
M73 Q0 S84
M201 X1000 Y1000 Z200 E5000 ; sets maximum accelerations, mm/sec^2
M203 X200 Y200 Z12 E120 ; sets maximum feedrates, mm / sec
M204 S1250 T1250 ; sets acceleration (S) and retract acceleration (R), mm/sec^2
M205 X8.00 Y8.00 Z0.40 E4.50 ; sets the jerk limits, mm/sec
M205 S0 T0 ; sets the minimum extruding and travel feed rate, mm/sec

; printing object Time server case - Olimex Brace.stl id:0 copy 0
; stop printing object Time server case - Olimex Brace.stl id:0 copy 0

;TYPE:Custom
M862.3 P "MK3S" ; printer model check
M862.1 P0.4 ; nozzle diameter check
M115 U3.14.1 ; tell printer latest fw version
G90 ; use absolute coordinates
M83 ; extruder relative mode
M104 S250 ; set extruder temp
M140 S85 ; set bed temp
M190 S85 ; wait for bed temp
M109 S250 ; wait for extruder temp
G28 W ; home all without mesh bed level
G80 X71.6229 Y70.6231 W106.754 H68.7542 ; mesh bed levelling

G1 Z0.2 F720
G1 Y-3 F1000 ; go outside print area
G92 E0
G1 X60 E9 F1000 ; intro line
G1 X100 E12.5 F1000 ; intro line

G92 E0
M221 S95

; Don't change E values below. Excessive value can damage the printer.
M907 E430 ; set extruder motor current
G21 ; set units to millimeters
G90 ; use absolute coordinates
M83 ; use relative distances for extrusion

M900 K0.08 ; Filament gcode LA 1.5
M900 K45 ; Filament gcode LA 1.0




M107
;LAYER_CHANGE
;Z:0.2
;HEIGHT:0.2
G1 E-1 F2100
G1 Z.4 F720
G1 X72.202 Y71.752 F10800
G1 Z.2 F720
G1 E1 F2100
M204 S800
;TYPE:Skirt/Brim
;WIDTH:0.42
G1 F1200
G1 X73.235 Y70.95 E.041
G1 X74 Y70.812 E.02437
G1 X176 Y70.812 E3.19814
G1 X177.248 Y71.203 E.04101
G1 X178.051 Y72.236 E.04102
G1 X178.189 Y73 E.02434
G1 X178.189 Y137 E2.00668
G1 X177.798 Y138.248 E.04101
G1 X176.765 Y139.051 E.04102
G1 X176 Y139.189 E.02437
G1 X74 Y139.189 E3.19814
G1 X72.752 Y138.798 E.04101
G1 X71.949 Y137.765 E.04102
G1 X71.811 Y137 E.02437
G1 X71.811 Y73 E2.00668
G1 X72.184 Y71.809 E.03913
M204 S1000
;WIPE_START
G1 F8640
G1 X72.202 Y71.752 E-.0138
G1 X73.235 Y70.95 E-.30197
G1 X74 Y70.812 E-.17949
G1 X76.186 Y70.812 E-.50474
;WIPE_END
G1 Z.4 F720
; printing object Time server case - Olimex Brace.stl id:0 copy 0
G1 X161.401 Y114.45 F10800
G1 Z.2 F720
G1 E1 F2100
M204 S800
;TYPE:Perimeter
;WIDTH:0.577957
G1 F1200
G1 X161.38 Y114.527 E.00355
G1 X161.228 Y114.568 E.007
;WIDTH:0.533432
G1 X161.076 Y114.608 E.00641
;WIDTH:0.488907
G1 X160.924 Y114.649 E.00584
;WIDTH:0.444381
G1 X129.882 Y114.649 E1.03623
;WIDTH:0.488907
G1 X129.73 Y114.608 E.00584
;WIDTH:0.533432
G1 X129.578 Y114.568 E.00641
;WIDTH:0.577957
G1 X129.426 Y114.527 E.007
G1 X129.385 Y114.375 E.007
;WIDTH:0.533432
G1 X129.344 Y114.223 E.00642
;WIDTH:0.488907
G1 X129.304 Y114.071 E.00583
;WIDTH:0.444381
G1 X129.304 Y111.628 E.08155
;WIDTH:0.488907
G1 X129.281 Y111.413 E.00802
;WIDTH:0.533432
G1 X129.259 Y111.198 E.00881
;WIDTH:0.577957
G1 X129.237 Y110.716 E.02147
G1 X128.933 Y110.694 E.01356
;WIDTH:0.533432
G1 X128.629 Y110.671 E.01243
;WIDTH:0.488907
G1 X128.324 Y110.649 E.01134
;WIDTH:0.444381
G1 X105.379 Y110.649 E.76594
G1 X104.926 Y110.411 E.01708
G1 X104.801 Y110.12 E.01057
G1 X104.801 Y74.779 E1.17974
G1 X104.846 Y74.579 E.00684
;WIDTH:0.426585
G1 X104.926 Y74.439 E.00514
;WIDTH:0.444381
G1 X105.287 Y74.201 E.01443
G1 X174.221 Y74.201 E2.30113
;WIDTH:0.488907
G1 X174.373 Y74.242 E.00584
;WIDTH:0.533432
G1 X174.525 Y74.282 E.00641
;WIDTH:0.577957
G1 X174.677 Y74.323 E.007
G1 X174.718 Y74.475 E.007
;WIDTH:0.533432
G1 X174.759 Y74.627 E.00642
;WIDTH:0.488907
G1 X174.799 Y74.779 E.00583
;WIDTH:0.444381
G1 X174.799 Y110.071 E1.1781
;WIDTH:0.450279
G1 X174.793 Y110.172 E.00343
G1 X174.561 Y110.524 E.01428
;WIDTH:0.426585
G1 X174.421 Y110.604 E.00514
;WIDTH:0.444381
G1 X174.221 Y110.649 E.00684
G1 X162.482 Y110.649 E.39187
;WIDTH:0.488907
G1 X162.267 Y110.671 E.00801
;WIDTH:0.533432
G1 X162.052 Y110.694 E.00882
;WIDTH:0.577957
G1 X161.569 Y110.716 E.02151
G1 X161.547 Y111.02 E.01356
;WIDTH:0.533432
G1 X161.525 Y111.324 E.01243
;WIDTH:0.488907
G1 X161.502 Y111.628 E.01131
;WIDTH:0.444381
G1 X161.502 Y114.071 E.08155
;WIDTH:0.488907
G1 X161.462 Y114.223 E.00583
;WIDTH:0.533432
G1 X161.421 Y114.375 E.00642
;WIDTH:0.577957
G1 X161.416 Y114.392 E.00079
M204 S1000
G1 X161.071 Y114.172 F10800
M204 S800
;TYPE:External perimeter
;WIDTH:0.419999
G1 F1200
G1 X161.058 Y114.205 E.00111
G1 X160.924 Y114.26 E.00454
G1 X129.882 Y114.26 E.9733
G1 X129.748 Y114.205 E.00454
G1 X129.693 Y114.071 E.00454
G1 X129.693 Y110.26 E.11949
G1 X105.379 Y110.26 E.76235
G1 X105.19 Y110.129 E.00721
M73 Q0 S83
G1 X105.202 Y74.713 E1.11044
G1 X105.349 Y74.59 E.00601
G1 X174.221 Y74.59 E2.15943
G1 X174.355 Y74.645 E.00454
G1 X174.41 Y74.779 E.00454
G1 X174.41 Y110.071 E1.10655
G1 X174.335 Y110.222 E.00529
G1 X174.221 Y110.26 E.00377
G1 X161.113 Y110.26 E.41099
G1 X161.113 Y114.071 E.11949
G1 X161.094 Y114.117 E.00156
M204 S1000
;WIPE_START
G1 F8640
G1 X161.071 Y114.172 E-.01377
G1 X161.058 Y114.205 E-.00819
G1 X160.924 Y114.26 E-.03345
G1 X156.833 Y114.26 E-.94459
;WIPE_END
G1 Z.4 F720
G1 X104.196 Y110.462 F10800
G1 Z.2 F720
G1 E1 F2100
M204 S800
;TYPE:Perimeter
;WIDTH:0.444381
G1 F1200
G1 X103.913 Y110.649 E.01132
G1 X75.779 Y110.649 E.93916
G1 X75.578 Y110.606 E.00686
;WIDTH:0.432046
G1 X75.439 Y110.524 E.00522
;WIDTH:0.444381
G1 X75.201 Y110.163 E.01443
G1 X75.201 Y74.779 E1.18118
;WIDTH:0.488907
G1 X75.241 Y74.627 E.00583
M73 P1 R83
M73 Q1 S83
;WIDTH:0.533432
G1 X75.282 Y74.475 E.00642
;WIDTH:0.577957
G1 X75.323 Y74.323 E.007
G1 X75.475 Y74.282 E.007
;WIDTH:0.533432
G1 X75.627 Y74.242 E.00641
;WIDTH:0.488907
G1 X75.779 Y74.201 E.00584
;WIDTH:0.444381
G1 X103.821 Y74.201 E.93609
G1 X104.274 Y74.439 E.01708
M73 P1 R82
;WIDTH:0.426585
G1 X104.354 Y74.579 E.00514
;WIDTH:0.444381
G1 X104.399 Y74.779 E.00684
G1 X104.399 Y110.071 E1.1781
G1 X104.357 Y110.272 E.00685
;WIDTH:0.432046
G1 X104.274 Y110.411 E.00524
;WIDTH:0.444381
G1 X104.246 Y110.429 E.00111
M204 S1000
G1 X103.924 Y110.208 F10800
M204 S800
;TYPE:External perimeter
;WIDTH:0.419999
G1 F1200
G1 X103.821 Y110.26 E.00362
G1 X75.779 Y110.26 E.87924
G1 X75.665 Y110.222 E.00377
G1 X75.59 Y110.071 E.00529
G1 X75.59 Y74.779 E1.10655
G1 X75.645 Y74.645 E.00454
G1 X75.779 Y74.59 E.00454
G1 X103.821 Y74.59 E.87924
G1 X104.01 Y74.721 E.00721
G1 X104.01 Y110.071 E1.10837
G1 X103.974 Y110.178 E.00354
M204 S1000
;WIPE_START
G1 F8640
G1 X103.924 Y110.208 E-.01346
G1 X103.821 Y110.26 E-.02664
G1 X99.664 Y110.26 E-.9599
;WIPE_END
G1 Z.4 F720
G1 X144.991 Y135.646 F10800
G1 Z.2 F720
G1 E1 F2100
M204 S800
;TYPE:Perimeter
;WIDTH:0.426147
G1 F1200
G1 X144.711 Y135.827 E.01062
G1 X75.779 Y135.827 E2.19655
;WIDTH:0.473241
G1 X75.624 Y135.784 E.00576
;WIDTH:0.520335
G1 X75.469 Y135.74 E.0064
;WIDTH:0.567428
G1 X75.314 Y135.697 E.00702
G1 X75.276 Y135.551 E.00658
;WIDTH:0.526413
G1 X75.238 Y135.404 E.0061
;WIDTH:0.485397
G1 X75.201 Y135.258 E.00554
;WIDTH:0.444381
G1 X75.201 Y111.628 E.78881
G1 X75.439 Y111.176 E.01705
G1 X75.73 Y111.051 E.01057
G1 X128.324 Y111.051 E1.75567
;WIDTH:0.488907
G1 X128.476 Y111.091 E.00583
;WIDTH:0.533432
G1 X128.628 Y111.132 E.00642
;WIDTH:0.577957
G1 X128.78 Y111.173 E.007
G1 X128.821 Y111.324 E.00696
;WIDTH:0.533432
G1 X128.862 Y111.476 E.00642
;WIDTH:0.488907
G1 X128.902 Y111.628 E.00583
;WIDTH:0.444381
G1 X128.902 Y114.071 E.08155
;WIDTH:0.488907
G1 X128.925 Y114.286 E.00802
;WIDTH:0.533432
G1 X128.947 Y114.501 E.00881
;WIDTH:0.577957
G1 X128.969 Y114.984 E.02151
G1 X129.273 Y115.006 E.01356
;WIDTH:0.533432
G1 X129.577 Y115.028 E.01243
;WIDTH:0.488907
G1 X129.882 Y115.051 E.01134
;WIDTH:0.444381
G1 X144.621 Y115.051 E.49201
G1 X145.074 Y115.289 E.01708
;WIDTH:0.426585
G1 X145.154 Y115.429 E.00514
;WIDTH:0.444381
G1 X145.199 Y115.628 E.00681
G1 X145.199 Y135.258 E.65528
G1 X145.16 Y135.452 E.00661
;WIDTH:0.432829
G1 X145.08 Y135.589 E.00514
;WIDTH:0.426147
G1 X145.042 Y135.614 E.00145
M204 S1000
G1 X144.724 Y135.394 F10800
M204 S800
;TYPE:External perimeter
;WIDTH:0.419999
G1 F1200
G1 X144.621 Y135.447 E.00363
G1 X75.779 Y135.447 E2.15849
G1 X75.641 Y135.388 E.00471
G1 X75.59 Y135.258 E.00438
G1 X75.59 Y111.628 E.7409
G1 X75.721 Y111.44 E.00718
G1 X128.324 Y111.44 E1.64933
G1 X128.458 Y111.495 E.00454
G1 X128.513 Y111.628 E.00451
G1 X128.513 Y115.44 E.11952
G1 X144.621 Y115.44 E.50505
G1 X144.81 Y115.57 E.00719
G1 X144.81 Y135.258 E.6173
G1 X144.776 Y135.365 E.00352
M204 S1000
;WIPE_START
G1 F8640
G1 X144.724 Y135.394 E-.01375
G1 X144.621 Y135.447 E-.02675
G1 X140.466 Y135.447 E-.9595
;WIPE_END
G1 Z.4 F720
G1 X145.818 Y135.64 F10800
G1 Z.2 F720
G1 E1 F2100
M204 S800
;TYPE:Perimeter
;WIDTH:0.426147
G1 F1200
G1 X145.72 Y135.589 E.00352
;WIDTH:0.444381
G1 X145.601 Y135.306 E.01025
G1 X145.601 Y115.628 E.65688
G1 X145.646 Y115.429 E.00681
;WIDTH:0.426585
G1 X145.726 Y115.289 E.00514
;WIDTH:0.444381
G1 X146.087 Y115.051 E.01443
G1 X160.924 Y115.051 E.49528
;WIDTH:0.488907
G1 X161.139 Y115.028 E.00802
;WIDTH:0.533432
G1 X161.354 Y115.006 E.00881
;WIDTH:0.577957
G1 X161.837 Y114.984 E.02151
G1 X161.859 Y114.713 E.0121
;WIDTH:0.533432
G1 X161.881 Y114.442 E.01109
;WIDTH:0.488907
G1 X161.904 Y114.171 E.01009
;WIDTH:0.444381
G1 X161.904 Y111.628 E.08489
;WIDTH:0.488907
G1 X161.944 Y111.476 E.00583
;WIDTH:0.533432
G1 X161.985 Y111.324 E.00642
;WIDTH:0.577957
G1 X162.026 Y111.173 E.00696
G1 X162.178 Y111.132 E.007
;WIDTH:0.533432
G1 X162.33 Y111.091 E.00642
;WIDTH:0.488907
G1 X162.482 Y111.051 E.00583
;WIDTH:0.444381
G1 X174.221 Y111.051 E.39187
G1 X174.421 Y111.096 E.00684
;WIDTH:0.426585
G1 X174.561 Y111.176 E.00514
;WIDTH:0.444381
G1 X174.799 Y111.628 E.01705
G1 X174.799 Y135.258 E.78881
;WIDTH:0.485397
G1 X174.762 Y135.404 E.00554
;WIDTH:0.526413
G1 X174.724 Y135.551 E.0061
;WIDTH:0.567429
G1 X174.686 Y135.697 E.00658
G1 X174.531 Y135.74 E.00702
;WIDTH:0.520335
G1 X174.376 Y135.784 E.0064
;WIDTH:0.473241
G1 X174.221 Y135.827 E.00576
;WIDTH:0.426147
G1 X146.179 Y135.827 E.89357
G1 X145.871 Y135.668 E.01105
M204 S1000
G1 X146.076 Y135.375 F10800
M204 S800
;TYPE:External perimeter
;WIDTH:0.419999
G1 F1200
G1 X145.99 Y135.314 E.00331
G1 X145.99 Y115.628 E.61724
G1 X146.028 Y115.515 E.00374
G1 X146.179 Y115.44 E.00529
G1 X162.293 Y115.44 E.50524
G1 X162.293 Y111.628 E.11952
G1 X162.348 Y111.495 E.00451
G1 X162.482 Y111.44 E.00454
G1 X174.221 Y111.44 E.36807
G1 X174.335 Y111.477 E.00376
G1 X174.41 Y111.628 E.00529
G1 X174.41 Y135.258 E.7409
G1 X174.359 Y135.388 E.00438
G1 X174.221 Y135.447 E.00471
G1 X146.179 Y135.447 E.87924
G1 X146.125 Y135.409 E.00207
M204 S1000
;WIPE_START
G1 F8640
G1 X146.076 Y135.375 E-.01377
G1 X145.99 Y135.314 E-.02435
G1 X145.99 Y131.148 E-.96188
;WIPE_END
G1 Z.4 F720
G1 X175.139 Y136.139 F10800
G1 Z.2 F720
G1 E1 F2100
M204 S800
;TYPE:Perimeter
;WIDTH:0.567429
G1 F1200
G1 X174.877 Y136.139 E.01143
G1 X174.658 Y136.163 E.00961
;WIDTH:0.520335
G1 X174.44 Y136.187 E.00871
;WIDTH:0.473241
G1 X174.221 Y136.21 E.00788
;WIDTH:0.426147
G1 X75.779 Y136.21 E3.1369
;WIDTH:0.473241
G1 X75.473 Y136.187 E.01098
;WIDTH:0.520335
G1 X75.167 Y136.163 E.01218
;WIDTH:0.567428
G1 X74.861 Y136.139 E.01339
G1 X74.84 Y135.671 E.02043
;WIDTH:0.526413
G1 X74.82 Y135.464 E.00836
;WIDTH:0.485397
G1 X74.799 Y135.258 E.00762
;WIDTH:0.444381
G1 X74.799 Y74.779 E2.01889
;WIDTH:0.488907
G1 X74.822 Y74.475 E.01131
M73 Q1 S82
;WIDTH:0.533432
G1 X74.844 Y74.17 E.01247
;WIDTH:0.577957
G1 X74.866 Y73.866 E.01356
G1 X75.349 Y73.844 E.02151
;WIDTH:0.533432
G1 X75.564 Y73.822 E.00881
;WIDTH:0.488907
G1 X75.779 Y73.799 E.00802
;WIDTH:0.444381
G1 X174.221 Y73.799 E3.28615
;WIDTH:0.488907
G1 X174.526 Y73.822 E.01134
M73 P2 R82
M73 Q2 S82
;WIDTH:0.533432
G1 X174.83 Y73.844 E.01243
;WIDTH:0.577957
G1 X175.134 Y73.866 E.01356
G1 X175.134 Y74.134 E.01192
G1 X175.156 Y74.349 E.00961
;WIDTH:0.533432
G1 X175.178 Y74.564 E.00881
;WIDTH:0.488907
G1 X175.201 Y74.779 E.00802
;WIDTH:0.444381
G1 X175.201 Y135.356 E2.02216
;WIDTH:0.485397
G1 X175.18 Y135.617 E.00963
;WIDTH:0.526413
G1 X175.16 Y135.878 E.01052
;WIDTH:0.567429
G1 X175.144 Y136.08 E.00884
M204 S1000
G1 X175.59 Y136.59 F10800
M204 S800
;TYPE:External perimeter
;WIDTH:0.419999
G1 F1200
G1 X74.41 Y136.59 E3.17242
G1 X74.41 Y73.41 E1.98096
M73 P2 R81
G1 X175.59 Y73.41 E3.17242
G1 X175.59 Y136.53 E1.97908
M204 S1000
;LAYER_CHANGE
;Z:0.35
;HEIGHT:0.15
;BEFORE_LAYER_CHANGE
G92 E0.0
;0.35


;WIPE_START
G1 F8640
G1 X175.59 Y136.59 E-.01385
G1 X171.319 Y136.59 E-.98615
;WIPE_END
G1 Z.35 F720
;AFTER_LAYER_CHANGE
;0.35
M140 S90 ; set bed temperature
; stop printing object Time server case - Olimex Brace.stl id:0 copy 0
G1 Z.55
G1 X178.189 Y136.53 F10800
G1 Z.35 F720
G1 E1 F2100
;TYPE:Skirt/Brim
;WIDTH:0.42
G1 F3000
G1 X178.189 Y137 E.01137
G1 X177.798 Y138.248 E.03163
G1 X176.765 Y139.051 E.03164
G1 X176 Y139.189 E.0188
G1 X74 Y139.189 E2.46686
G1 X72.752 Y138.798 E.03163
G1 X71.949 Y137.765 E.03164
G1 X71.811 Y137 E.0188
G1 X71.811 Y73 E1.54783
G1 X72.202 Y71.752 E.03163
G1 X73.235 Y70.95 E.03163
G1 X74 Y70.812 E.0188
G1 X176 Y70.812 E2.46686
G1 X177.248 Y71.203 E.03163
G1 X178.051 Y72.236 E.03164
G1 X178.189 Y73 E.01878
G1 X178.189 Y136.47 E1.53501
;WIPE_START
G1 F8640
G1 X178.189 Y136.53 E-.01385
G1 X178.189 Y137 E-.10852
G1 X177.798 Y138.248 E-.30198
G1 X176.765 Y139.051 E-.30211
G1 X176 Y139.189 E-.17949
G1 X175.593 Y139.189 E-.09405
;WIPE_END
G1 Z.55 F720
; printing object Time server case - Olimex Brace.stl id:0 copy 0
G1 X161.162 Y114.309 F10800
G1 Z.35 F720
G1 E1 F2100
M204 S800
;TYPE:Perimeter
;WIDTH:0.499428
G1 F2441.316
G1 X161.052 Y114.395 E.00407
;WIDTH:0.548857
G1 F2418.949
G1 X160.942 Y114.481 E.0045
;WIDTH:0.598286
G1 F2401.147
G1 X160.832 Y114.567 E.00493
G1 F2442.626
G1 X146.384 Y114.567 E.51006
G1 F2449.665
G1 X146.056 Y114.542 E.01161
;WIDTH:0.548857
G1 F2477.457
G1 X145.728 Y114.517 E.0106
;WIDTH:0.499428
G1 F2514.551
G1 X145.4 Y114.493 E.00958
G1 F2538.811
G1 X145.072 Y114.517 E.00958
;WIDTH:0.548857
G1 F2545.612
G1 X144.744 Y114.542 E.0106
;WIDTH:0.598286
G1 F2552.813
G1 X144.416 Y114.567 E.01161
G1 F2700
G1 X130.087 Y114.567 E.50586
G1 F2284.045
G1 X129.939 Y114.481 E.00604
;WIDTH:0.548857
G1 F2276.5
G1 X129.791 Y114.395 E.00552
;WIDTH:0.499428
G1 F2274.844
G1 X129.644 Y114.309 E.00496
G1 F2268.191
G1 X129.558 Y114.199 E.00407
;WIDTH:0.548857
G1 F2256.489
G1 X129.472 Y114.089 E.0045
;WIDTH:0.598286
G1 F2253.391
G1 X129.386 Y113.979 E.00493
G1 F2255.426
G1 X129.386 Y111.834 E.07573
G1 F2253.423
G1 X129.411 Y111.562 E.00964
;WIDTH:0.548857
G1 F2256.057
G1 X129.435 Y111.29 E.0088
;WIDTH:0.499428
G1 F2259.202
G1 X129.46 Y111.019 E.00793
;WIDTH:0.449999
G1 F2265.655
G1 X129.46 Y110.493 E.01371
G1 F2260.046
G1 X128.934 Y110.493 E.01371
;WIDTH:0.499428
G1 F2312.617
G1 X128.662 Y110.517 E.00796
;WIDTH:0.548857
G1 F2340.695
G1 X128.391 Y110.542 E.00877
;WIDTH:0.598286
G1 F2364.206
G1 X128.119 Y110.567 E.00964
G1 F2700
G1 X105.584 Y110.567 E.79556
G1 X105.417 Y110.458 E.00704
;WIDTH:0.548857
G1 X105.25 Y110.35 E.00641
;WIDTH:0.499428
G1 X105.083 Y110.242 E.00579
G1 X105.016 Y110.137 E.00363
;WIDTH:0.548857
G1 X104.95 Y110.031 E.00402
;WIDTH:0.598286
G1 X104.883 Y109.926 E.0044
G1 X104.883 Y74.984 E1.23357
G1 X104.95 Y74.859 E.00501
;WIDTH:0.548857
G1 X105.016 Y74.733 E.00458
;WIDTH:0.499428
G1 X105.083 Y74.608 E.00413
G1 X105.212 Y74.5 E.0049
;WIDTH:0.548857
G1 X105.341 Y74.392 E.00542
;WIDTH:0.598286
G1 X105.47 Y74.283 E.00596
G1 X174.016 Y74.283 E2.4199
G1 F2409.419
G1 X174.164 Y74.369 E.00604
;WIDTH:0.548857
G1 F2419.089
G1 X174.312 Y74.455 E.00552
;WIDTH:0.499428
G1 F2417.639
G1 X174.459 Y74.541 E.00496
G1 F2399.043
G1 X174.545 Y74.689 E.00499
;WIDTH:0.548858
G1 F2367.052
G1 X174.631 Y74.836 E.00549
;WIDTH:0.598287
G1 F2339.112
G1 X174.717 Y74.984 E.00604
G1 F2576.138
G1 X174.717 Y109.866 E1.23145
;WIDTH:0.60574
G1 F2416.9
G1 X174.71 Y109.988 E.00437
G1 F2410.884
